src/assets/icon/account_balance_wallet.svg

<svg width="28" height="28" viewBox="0 0 28 28" fill="none" xmlns="http://www.w3.org/2000/svg">
<mask id="mask0_408_13304" style="mask-type:alpha" maskUnits="userSpaceOnUse" x="0" y="0" width="28" height="28">
<rect width="28" height="28" fill="#D9D9D9"/>
</mask>
<g mask="url(#mask0_408_13304)">
<path d="M6.19237 23.9168C5.6106 23.9168 5.1136 23.7108 4.70137 23.2988C4.28935 22.8866 4.08333 22.3896 4.08333 21.8078V6.19254C4.08333 5.61076 4.28935 5.11376 4.70137 4.70154C5.1136 4.28951 5.6106 4.0835 6.19237 4.0835H21.8076C22.3894 4.0835 22.8864 4.28951 23.2986 4.70154C23.7107 5.11376 23.9167 5.61076 23.9167 6.19254V9.36733H22.1667V6.19254C22.1667 6.08773 22.133 6.00169 22.0657 5.93441C21.9985 5.86714 21.9124 5.8335 21.8076 5.8335H6.19237C6.08757 5.8335 6.00153 5.86714 5.93425 5.93441C5.86697 6.00169 5.83333 6.08773 5.83333 6.19254V21.8078C5.83333 21.9126 5.86697 21.9986 5.93425 22.0659C6.00153 22.1332 6.08757 22.1668 6.19237 22.1668H21.8076C21.9124 22.1668 21.9985 22.1332 22.0657 22.0659C22.133 21.9986 22.1667 21.9126 22.1667 21.8078V18.633H23.9167V21.8078C23.9167 22.3896 23.7107 22.8866 23.2986 23.2988C22.8864 23.7108 22.3894 23.9168 21.8076 23.9168H6.19237ZM15.5257 19.2502C14.9439 19.2502 14.4469 19.0441 14.0347 18.6321C13.6227 18.2199 13.4167 17.7229 13.4167 17.1411V10.8592C13.4167 10.2774 13.6227 9.78043 14.0347 9.3682C14.4469 8.95618 14.9439 8.75016 15.5257 8.75016H22.9743C23.5561 8.75016 24.0531 8.95618 24.4653 9.3682C24.8773 9.78043 25.0833 10.2774 25.0833 10.8592V17.1411C25.0833 17.7229 24.8773 18.2199 24.4653 18.6321C24.0531 19.0441 23.5561 19.2502 22.9743 19.2502H15.5257ZM22.9743 17.5002C23.0791 17.5002 23.1651 17.4665 23.2324 17.3992C23.2997 17.332 23.3333 17.2459 23.3333 17.1411V10.8592C23.3333 10.7544 23.2997 10.6684 23.2324 10.6011C23.1651 10.5338 23.0791 10.5002 22.9743 10.5002H15.5257C15.4209 10.5002 15.3349 10.5338 15.2676 10.6011C15.2003 10.6684 15.1667 10.7544 15.1667 10.8592V17.1411C15.1667 17.2459 15.2003 17.332 15.2676 17.3992C15.3349 17.4665 15.4209 17.5002 15.5257 17.5002H22.9743ZM18.6667 15.7502C19.1528 15.7502 19.566 15.58 19.9062 15.2397C20.2465 14.8995 20.4167 14.4863 20.4167 14.0002C20.4167 13.5141 20.2465 13.1009 19.9062 12.7606C19.566 12.4203 19.1528 12.2502 18.6667 12.2502C18.1806 12.2502 17.7674 12.4203 17.4271 12.7606C17.0868 13.1009 16.9167 13.5141 16.9167 14.0002C16.9167 14.4863 17.0868 14.8995 17.4271 15.2397C17.7674 15.58 18.1806 15.7502 18.6667 15.7502Z" fill="black"/>
</g>
</svg>

<svg xmlns="http://www.w3.org/2000/svg" width="28" height="28" fill="none" xmlns:v="https://vecta.io/nano"><mask id="A" maskUnits="userSpaceOnUse" x="0" y="0" width="28" height="28" mask-type="alpha"><path fill="#d9d9d9" d="M0 0h28v28H0z"/></mask><g mask="url(#A)"><path d="M6.192 23.917a2.03 2.03 0 0 1-1.491-.618 2.03 2.03 0 0 1-.618-1.491V6.193a2.03 2.03 0 0 1 .618-1.491 2.03 2.03 0 0 1 1.491-.618h15.615a2.03 2.03 0 0 1 1.491.618 2.03 2.03 0 0 1 .618 1.491v3.175h-1.75V6.193a.35.35 0 0 0-.359-.359H6.192a.35.35 0 0 0-.359.359v15.615a.35.35 0 0 0 .359.359h15.615a.35.35 0 0 0 .359-.359v-3.175h1.75v3.175a2.03 2.03 0 0 1-.618 1.491 2.03 2.03 0 0 1-1.491.618H6.192zm9.333-4.667a2.03 2.03 0 0 1-1.491-.618 2.03 2.03 0 0 1-.618-1.491v-6.282a2.03 2.03 0 0 1 .618-1.491 2.03 2.03 0 0 1 1.491-.618h7.449a2.03 2.03 0 0 1 1.491.618 2.03 2.03 0 0 1 .618 1.491v6.282a2.03 2.03 0 0 1-.618 1.491 2.03 2.03 0 0 1-1.491.618h-7.449zm7.449-1.75a.35.35 0 0 0 .359-.359v-6.282a.35.35 0 0 0-.359-.359h-7.449a.35.35 0 0 0-.359.359v6.282a.35.35 0 0 0 .359.359h7.449zm-4.308-1.75c.486 0 .899-.17 1.239-.511s.511-.753.511-1.239-.17-.899-.511-1.24-.753-.51-1.239-.51-.899.17-1.24.51-.51.753-.51 1.24.17.899.51 1.239.753.511 1.24.511z" fill="#000"/></g></svg>
